chrome/icons/read.svg

<svg height="16" viewBox="0 64 960 896" width="16" xmlns="http://www.w3.org/2000/svg" xmlns:xlink="http://www.w3.org/1999/xlink">
  <path d="M864,64C877,64.0001 889.333,66.5001 901,71.5C912.667,76.5001 922.917,83.4167 931.75,92.25C940.583,101.083 947.5,111.333 952.5,123C957.5,134.667 960,147 960,160L960,864C960,877 957.5,889.333 952.5,901C947.5,912.667 940.583,922.917 931.75,931.75C922.917,940.583 912.667,947.5 901,952.5C889.333,957.5 877,960 864,960L608,960C582.667,960 558.833,954.333 536.5,943C514.167,931.667 495.333,915.833 480,895.5C464.667,915.833 445.833,931.667 423.5,943C401.167,954.333 377.333,960 352,960L96,960C83,960 70.6667,957.5 59,952.5C47.3333,947.5 37.0833,940.583 28.25,931.75C19.4167,922.917 12.5,912.667 7.5,901C2.5,889.333 0,877 0,864L0,160C0,147 2.5,134.667 7.5,123C12.5,111.333 19.4167,101.083 28.25,92.25C37.0833,83.4167 47.3333,76.5001 59,71.5C70.6667,66.5001 83,64.0001 96,64L352,64C377.333,64.0001 401.167,69.6667 423.5,81C445.833,92.3334 464.667,108.167 480,128.5C495.333,108.167 514.167,92.3334 536.5,81C558.833,69.6667 582.667,64.0001 608,64ZM352,896C365,896 377.333,893.5 389,888.5C400.667,883.5 410.917,876.583 419.75,867.75C428.583,858.917 435.5,848.667 440.5,837C445.5,825.333 448,813 448,800L448,224C448,211 445.5,198.667 440.5,187C435.5,175.333 428.583,165.083 419.75,156.25C410.917,147.417 400.667,140.5 389,135.5C377.333,130.5 365,128 352,128L96,128C87.3333,128 79.8333,131.167 73.5,137.5C67.1667,143.833 64,151.333 64,160L64,864C64,872.667 67.1667,880.167 73.5,886.5C79.8333,892.833 87.3333,896 96,896ZM896,160C896,151.333 892.833,143.833 886.5,137.5C880.167,131.167 872.667,128 864,128L608,128C595,128 582.667,130.5 571,135.5C559.333,140.5 549.083,147.417 540.25,156.25C531.417,165.083 524.5,175.333 519.5,187C514.5,198.667 512,211 512,224L512,800C512,813 514.5,825.333 519.5,837C524.5,848.667 531.417,858.917 540.25,867.75C549.083,876.583 559.333,883.5 571,888.5C582.667,893.5 595,896 608,896L864,896C872.667,896 880.167,892.833 886.5,886.5C892.833,880.167 896,872.667 896,864Z" fill="context-fill" fill-opacity="context-fill-opacity">
  </path>
</svg>

<svg xmlns="http://www.w3.org/2000/svg" width="16" height="16" viewBox="0 64 960 896"><path fill="context-fill" fill-opacity="context-fill-opacity" d="M864 64q19.5 0 37 7.5t30.75 20.75T952.5 123t7.5 37v704q0 19.5-7.5 37t-20.75 30.75T901 952.5t-37 7.5H608q-38 0-71.5-17T480 895.5Q457 926 423.5 943T352 960H96q-19.5 0-37-7.5t-30.75-20.75T7.5 901 0 864V160q0-19.5 7.5-37t20.75-30.75T59 71.5 96 64h256q38 0 71.5 17t56.5 47.5Q503 98 536.5 81T608 64ZM352 896q19.5 0 37-7.5t30.75-20.75T440.5 837t7.5-37V224q0-19.5-7.5-37t-20.75-30.75T389 135.5t-37-7.5H96q-13 0-22.5 9.5T64 160v704q0 13 9.5 22.5T96 896Zm544-736q0-13-9.5-22.5T864 128H608q-19.5 0-37 7.5t-30.75 20.75T519.5 187t-7.5 37v576q0 19.5 7.5 37t20.75 30.75T571 888.5t37 7.5h256q13 0 22.5-9.5T896 864Z"/></svg>
